!!!OTL: WIEDERSEHN WORT DES TROSTES
!!!ARE: Europa, Mitteleuropa, Deutschland
!!!SCT: B0780
!!!YEM: Copyright 1995, estate of Helmut Schaffrath.
**kern
*ICvox
*Ivox
*M4/4
*k[b-e-a-]
*E-:
=1
{2.b-
4g
=2
2g
4r}
{8e-
8g
=3
4.b-
8b-
8b-
8cc
8dd
8ee-
=4
2dd
4r}
{8dd
8cc
=5
4.b-
8cc
4b-
4a-
=6
4a-
4g
4r}
{8.g
16f
=7
4.f
8e-
4.e-
8d
=8
4c
4d
4e-}
{8f
8g
=9
4.a-
8f
8a-
8g
8f
8e-
=10
2f
2r}
=11
{4.cc
8a-
4.dd
8b-
=12
4.ee-
8b-
4b-
8g
8e-
=13
2.b-
4d
=14
1e-}
==
!!!AGN: Trost - Lied, Abschied
!!!ONB: ESAC (Essen Associative Code) Database: BOEHME
!!!AMT: simple quadruple
!!!AIN: vox
!!!EED: Helmut Schaffrath
!!!EEV: 1.0
*-
